; generated by Slic3r 1.1.5 on 2020-04-29 at 07:14:50

; This profile is for ShareBot NG 0.2 !

; perimeters extrusion width = 0.35mm
; infill extrusion width = 0.52mm
; solid infill extrusion width = 0.52mm
; top infill extrusion width = 0.52mm
; support material extrusion width = 0.14mm

G21 ; set units to millimeters
;M99 Y0.5 (X Y Z BACKSLASH)
G28 ;Home all axis
T0 ; estrusore destro (T1 estrusore sinistro)
;M106 S128 ;accende le ventole dell'estrusore
G1 Z10 F1000
G1 X170 Y200 F3000
M190 S50 ; riscalda piatto (prima era 35)
;M140 S60 ; riscalda piatto senza aspettare (prima era 50)
M109 S220 ; riscalda estrusore destro
G92 E0
G90 ; use absolute coordinates
G92 E0
M82 ; use absolute distances for extrusion
M106 S255
G1 Z0.200 F3000.000
G1 F1500.000 E-3.00000
G92 E0
G1 X86.440 Y86.583 F3000.000
G1 E3.00000 F1500.000
G1 X87.396 Y85.689 E3.03809 F2400.000
G1 X87.867 Y85.280 E3.05627
G1 X89.113 Y84.335 E3.10177
G1 X90.442 Y83.492 E3.14757
G1 X91.634 Y82.859 E3.18685
G1 X92.253 Y82.571 E3.20673
G1 X93.281 Y82.148 E3.23907
G1 X93.769 Y81.973 E3.25417
G1 X95.014 Y81.587 E3.29209
G1 X96.306 Y81.290 E3.33067
G1 X96.917 Y81.175 E3.34875
G1 X98.085 Y81.021 E3.38305
G1 X98.766 Y80.969 E3.40293
G1 X100.026 Y80.924 E3.43962
G1 X101.596 Y80.991 E3.48534
G1 X102.963 Y81.159 E3.52544
G1 X103.403 Y81.231 E3.53840
G1 X104.936 Y81.574 E3.58412
G1 X106.126 Y81.939 E3.62034
G1 X106.770 Y82.167 E3.64022
G1 X107.881 Y82.628 E3.67523
G1 X108.463 Y82.910 E3.69406
G1 X109.603 Y83.517 E3.73165
G1 X110.692 Y84.204 E3.76912
G1 X111.249 Y84.599 E3.78899
G1 X112.179 Y85.319 E3.82322
G1 X113.346 Y86.372 E3.86897
G1 X113.707 Y86.737 E3.88390
G1 X114.586 Y87.706 E3.92198
G1 X115.400 Y88.750 E3.96051
G1 X115.763 Y89.258 E3.97868
G1 X116.583 Y90.570 E4.02371
G1 X117.166 Y91.683 E4.06026
G1 X117.450 Y92.304 E4.08014
G1 X117.905 Y93.420 E4.11523
G1 X118.329 Y94.726 E4.15517
G1 X118.507 Y95.385 E4.17504
G1 X118.712 Y96.311 E4.20263
G1 X118.834 Y96.983 E4.22250
G1 X118.996 Y98.256 E4.25987
G1 X119.075 Y99.812 E4.30520
G1 X119.066 Y100.422 E4.32295
G1 X118.996 Y101.744 E4.36148
G1 X118.787 Y103.305 E4.40732
G1 X118.507 Y104.615 E4.44631
G1 X118.386 Y105.081 E4.46032
G1 X118.044 Y106.179 E4.49378
G1 X117.812 Y106.821 E4.51366
G1 X117.404 Y107.804 E4.54464
G1 X117.166 Y108.317 E4.56110
G1 X116.583 Y109.430 E4.59765
G1 X115.884 Y110.553 E4.63616
G1 X115.548 Y111.053 E4.65368
G1 X114.791 Y112.045 E4.68999
G1 X114.423 Y112.481 E4.70660
G1 X113.707 Y113.263 E4.73746
G1 X113.223 Y113.745 E4.75733
G1 X112.369 Y114.521 E4.79093
G1 X112.001 Y114.824 E4.80479
G1 X110.928 Y115.635 E4.84393
G1 X109.603 Y116.483 E4.88972
G1 X108.432 Y117.106 E4.92831
G1 X107.881 Y117.372 E4.94613
G1 X106.770 Y117.833 E4.98114
G1 X106.126 Y118.060 E5.00102
G1 X104.936 Y118.426 E5.03724
G1 X103.636 Y118.723 E5.07604
G1 X102.963 Y118.841 E5.09592
G1 X101.842 Y118.985 E5.12881
G1 X101.343 Y119.026 E5.14341
G1 X100.026 Y119.076 E5.18175
G1 X98.453 Y119.013 E5.22757
G1 X97.145 Y118.855 E5.26590
G1 X96.545 Y118.761 E5.28359
G1 X95.014 Y118.413 E5.32927
G1 X93.769 Y118.027 E5.36720
G1 X93.128 Y117.791 E5.38708
G1 X92.254 Y117.429 E5.41464
G1 X91.634 Y117.140 E5.43452
G1 X90.442 Y116.508 E5.47379
G1 X89.401 Y115.855 E5.50957
G1 X88.838 Y115.468 E5.52945
G1 X87.867 Y114.720 E5.56510
G1 X86.696 Y113.670 E5.61088
G1 X86.218 Y113.182 E5.63076
G1 X85.382 Y112.256 E5.66706
G1 X84.422 Y111.009 E5.71289
G1 X84.175 Y110.645 E5.72567
G1 X83.443 Y109.472 E5.76591
G1 X82.885 Y108.415 E5.80071
G1 X82.592 Y107.797 E5.82059
G1 X82.111 Y106.625 E5.85748
G1 X81.704 Y105.378 E5.89564
G1 X81.534 Y104.786 E5.91356
G1 X81.265 Y103.583 E5.94946
G1 X81.152 Y102.909 E5.96933
G1 X81.000 Y101.695 E6.00495
G1 X80.925 Y100.124 E6.05072
G1 X80.930 Y99.658 E6.06426
G1 X81.000 Y98.305 E6.10370
G1 X81.204 Y96.744 E6.14952
G1 X81.480 Y95.449 E6.18806
G1 X81.633 Y94.850 E6.20605
G1 X81.989 Y93.718 E6.24059
G1 X82.203 Y93.145 E6.25839
G1 X82.592 Y92.203 E6.28806
G1 X82.885 Y91.585 E6.30794
G1 X83.443 Y90.528 E6.34274
G1 X84.175 Y89.355 E6.38298
G1 X84.565 Y88.794 E6.40286
G1 X85.382 Y87.744 E6.44159
G1 X86.403 Y86.621 E6.48576
G1 F1500.000 E3.48576
G92 E0
G1 X86.690 Y86.828 F3000.000
G1 E3.00000 F1500.000
G1 X87.632 Y85.947 E3.03753 F2400.000
G1 X88.088 Y85.551 E3.05510
G1 X89.312 Y84.623 E3.09981
G1 X90.617 Y83.794 E3.14481
G1 X91.792 Y83.172 E3.18352
G1 X92.391 Y82.893 E3.20273
G1 X93.260 Y82.533 E3.23009
G1 X93.879 Y82.305 E3.24931
G1 X95.107 Y81.925 E3.28671
G1 X96.379 Y81.632 E3.32471
G1 X96.969 Y81.521 E3.34218
G1 X98.124 Y81.369 E3.37609
G1 X98.783 Y81.319 E3.39530
G1 X100.025 Y81.274 E3.43148
G1 X101.567 Y81.340 E3.47640
G1 X102.914 Y81.505 E3.51590
G1 X103.339 Y81.575 E3.52843
G1 X104.846 Y81.912 E3.57335
G1 X106.019 Y82.273 E3.60908
G1 X106.642 Y82.492 E3.62829
G1 X107.739 Y82.948 E3.66289
G1 X108.302 Y83.221 E3.68108
G1 X109.426 Y83.819 E3.71813
G1 X110.499 Y84.497 E3.75509
G1 X111.038 Y84.878 E3.77430
G1 X111.957 Y85.589 E3.80810
G1 X113.103 Y86.624 E3.85305
G1 X113.452 Y86.977 E3.86749
G1 X114.319 Y87.932 E3.90503
G1 X115.121 Y88.961 E3.94299
G1 X115.472 Y89.452 E3.96055
G1 X116.277 Y90.741 E4.00480
G1 X116.853 Y91.839 E4.04088
G1 X117.127 Y92.440 E4.06009
G1 X117.577 Y93.542 E4.09472
G1 X117.994 Y94.828 E4.13407
G1 X118.166 Y95.465 E4.15328
G1 X118.369 Y96.384 E4.18067
G1 X118.488 Y97.033 E4.19988
G1 X118.648 Y98.290 E4.23674
G1 X118.725 Y99.818 E4.28128
G1 X118.716 Y100.408 E4.29844
G1 X118.648 Y101.710 E4.33640
G1 X118.443 Y103.244 E4.38143
G1 X118.166 Y104.535 E4.41986
G1 X118.049 Y104.986 E4.43341
G1 X117.711 Y106.070 E4.46647
G1 X117.487 Y106.691 E4.48568
G1 X117.083 Y107.664 E4.51635
G1 X116.853 Y108.161 E4.53227
G1 X116.277 Y109.259 E4.56834
G1 X115.589 Y110.365 E4.60627
G1 X115.264 Y110.848 E4.62321
G1 X114.517 Y111.827 E4.65905
G1 X114.161 Y112.249 E4.67511
G1 X113.452 Y113.023 E4.70566
G1 X112.984 Y113.489 E4.72487
G1 X112.140 Y114.256 E4.75806
G1 X111.785 Y114.549 E4.77147
G1 X110.728 Y115.348 E4.81004
G1 X109.426 Y116.181 E4.85502
G1 X108.302 Y116.779 E4.89207
G1 X107.739 Y117.052 E4.91027
G1 X106.641 Y117.508 E4.94486
G1 X106.019 Y117.727 E4.96406
G1 X104.846 Y118.088 E4.99979
G1 X103.565 Y118.381 E5.03804
G1 X102.914 Y118.495 E5.05725
G1 X101.806 Y118.637 E5.08976
G1 X101.323 Y118.677 E5.10387
G1 X100.025 Y118.726 E5.14168
G1 X98.479 Y118.664 E5.18670
G1 X97.191 Y118.508 E5.22446
G1 X96.611 Y118.417 E5.24156
G1 X95.107 Y118.076 E5.28644
G1 X93.879 Y117.695 E5.32385
G1 X93.260 Y117.467 E5.34306
G1 X92.391 Y117.107 E5.37042
G1 X91.792 Y116.828 E5.38964
G1 X90.617 Y116.206 E5.42834
G1 X89.590 Y115.560 E5.46363
G1 X89.046 Y115.187 E5.48285
G1 X88.088 Y114.449 E5.51806
G1 X86.937 Y113.416 E5.56304
G1 X86.475 Y112.945 E5.58225
G1 X85.651 Y112.032 E5.61805
G1 X84.707 Y110.806 E5.66308
G1 X84.468 Y110.455 E5.67544
G1 X83.747 Y109.299 E5.71507
G1 X83.196 Y108.255 E5.74943
G1 X82.914 Y107.658 E5.76865
G1 X82.439 Y106.501 E5.80504
G1 X82.038 Y105.273 E5.84264
G1 X81.874 Y104.701 E5.85997
G1 X81.608 Y103.513 E5.89541
G1 X81.499 Y102.862 E5.91462
G1 X81.348 Y101.663 E5.94976
G1 X81.275 Y100.120 E5.99472
G1 X81.280 Y99.670 E6.00783
G1 X81.348 Y98.337 E6.04668
G1 X81.549 Y96.803 E6.09171
G1 X81.821 Y95.527 E6.12967
G1 X81.969 Y94.948 E6.14706
G1 X82.321 Y93.829 E6.18119
G1 X82.527 Y93.275 E6.19839
G1 X82.914 Y92.342 E6.22780
G1 X83.196 Y91.745 E6.24701
G1 X83.747 Y90.701 E6.28137
G1 X84.468 Y89.545 E6.32100
G1 X84.846 Y89.004 E6.34021
G1 X85.651 Y87.968 E6.37840
G1 X86.654 Y86.866 E6.42176
G1 F1500.000 E3.42176
G92 E0
G1 X86.940 Y87.073 F3000.000
G1 E3.00000 F1500.000
G1 X87.868 Y86.206 E3.03697 F2400.000
G1 X88.308 Y85.823 E3.05393
G1 X89.511 Y84.912 E3.09785
G1 X90.793 Y84.097 E3.14205
G1 X91.951 Y83.484 E3.18018
G1 X92.528 Y83.215 E3.19873
G1 X93.391 Y82.858 E3.22590
G1 X93.989 Y82.637 E3.24445
G1 X95.199 Y82.262 E3.28133
G1 X96.452 Y81.974 E3.31875
G1 X97.022 Y81.867 E3.33562
G1 X98.164 Y81.717 E3.36913
G1 X98.799 Y81.668 E3.38767
G1 X100.024 Y81.624 E3.42333
G1 X101.539 Y81.689 E3.46746
G1 X102.865 Y81.852 E3.50636
G1 X103.276 Y81.919 E3.51847
G1 X104.755 Y82.250 E3.56259
G1 X105.912 Y82.606 E3.59782
G1 X106.513 Y82.818 E3.61637
G1 X107.598 Y83.268 E3.65054
G1 X108.141 Y83.532 E3.66811
G1 X109.248 Y84.121 E3.70461
G1 X110.307 Y84.789 E3.74106
G1 X110.827 Y85.157 E3.75960
G1 X111.734 Y85.859 E3.79298
G1 X112.860 Y86.876 E3.83713
G1 X113.198 Y87.216 E3.85107
G1 X114.052 Y88.159 E3.88809
G1 X114.841 Y89.172 E3.92547
G1 X115.180 Y89.646 E3.94242
G1 X115.972 Y90.913 E3.98590
G1 X116.540 Y91.996 E4.02150
G1 X116.805 Y92.576 E4.04004
G1 X117.248 Y93.663 E4.07422
G1 X117.659 Y94.929 E4.11297
G1 X117.825 Y95.545 E4.13151
G1 X118.027 Y96.457 E4.15871
G1 X118.141 Y97.084 E4.17726
G1 X118.300 Y98.323 E4.21362
G1 X118.375 Y99.825 E4.25737
G1 X118.367 Y100.394 E4.27394
G1 X118.300 Y101.677 E4.31132
G1 X118.098 Y103.183 E4.35555
G1 X117.825 Y104.455 E4.39341
G1 X117.712 Y104.891 E4.40651
G1 X117.378 Y105.962 E4.43917
G1 X117.162 Y106.562 E4.45771
G1 X116.762 Y107.525 E4.48807
G1 X116.540 Y108.004 E4.50344
G1 X115.972 Y109.087 E4.53903
G1 X115.293 Y110.177 E4.57639
G1 X114.980 Y110.643 E4.59274
G1 X114.242 Y111.609 E4.62812
G1 X113.899 Y112.017 E4.64362
G1 X113.198 Y112.784 E4.67386
G1 X112.745 Y113.233 E4.69241
G1 X111.912 Y113.991 E4.72520
G1 X111.569 Y114.274 E4.73815
G1 X110.527 Y115.062 E4.77615
G1 X109.248 Y115.879 E4.82034
G1 X108.141 Y116.468 E4.85683
G1 X107.597 Y116.732 E4.87441
G1 X106.513 Y117.182 E4.90857
G1 X105.912 Y117.394 E4.92711
G1 X104.755 Y117.750 E4.96234
G1 X103.493 Y118.038 E5.00003
G1 X102.865 Y118.148 E5.01858
G1 X101.770 Y118.289 E5.05072
G1 X101.303 Y118.327 E5.06434
G1 X100.024 Y118.376 E5.10161
G1 X98.506 Y118.315 E5.14583
G1 X97.237 Y118.161 E5.18301
G1 X96.677 Y118.073 E5.19953
G1 X95.199 Y117.738 E5.24361
G1 X93.989 Y117.363 E5.28049
G1 X93.391 Y117.142 E5.29904
G1 X92.528 Y116.785 E5.32621
G1 X91.950 Y116.516 E5.34476
G1 X90.793 Y115.903 E5.38289
G1 X89.780 Y115.266 E5.41770
G1 X89.255 Y114.905 E5.43625
G1 X88.308 Y114.177 E5.47101
G1 X87.178 Y113.162 E5.51520
G1 X86.733 Y112.707 E5.53374
G1 X85.919 Y111.807 E5.56904
G1 X84.992 Y110.603 E5.61327
G1 X84.051 Y109.126 E5.66423
G1 X83.508 Y108.095 E5.69814
G1 X83.235 Y107.519 E5.71669
G1 X82.766 Y106.378 E5.75260
G1 X82.372 Y105.168 E5.78963
G1 X82.213 Y104.616 E5.80636
G1 X81.951 Y103.443 E5.84135
G1 X81.845 Y102.814 E5.85989
G1 X81.697 Y101.632 E5.89456
G1 X81.625 Y100.116 E5.93873
G1 X81.630 Y99.681 E5.95138
G1 X81.697 Y98.368 E5.98966
G1 X81.894 Y96.861 E6.03388
G1 X82.153 Y95.645 E6.07006
G1 X82.305 Y95.046 E6.08806
G1 X82.653 Y93.940 E6.12179
G1 X82.877 Y93.344 E6.14033
G1 X83.352 Y92.221 E6.17581
G1 X83.939 Y91.076 E6.21327
G1 X84.259 Y90.525 E6.23181
G1 X84.762 Y89.736 E6.25902
G1 X85.126 Y89.214 E6.27756
G1 X85.919 Y88.193 E6.31519
G1 X86.904 Y87.111 E6.35776
G1 F1500.000 E3.35776
G92 E0
G1 X87.190 Y87.318 F3000.000
G1 E3.00000 F1500.000
G1 X88.104 Y86.464 E3.03641 F2400.000
G1 X88.529 Y86.095 E3.05276
G1 X89.709 Y85.200 E3.09589
G1 X90.968 Y84.400 E3.13929
G1 X92.109 Y83.796 E3.17685
G1 X92.666 Y83.537 E3.19473
G1 X93.522 Y83.182 E3.22171
G1 X94.099 Y82.970 E3.23959
G1 X95.292 Y82.600 E3.27594
G1 X96.526 Y82.317 E3.31279
G1 X97.075 Y82.214 E3.32905
G1 X98.203 Y82.065 E3.36216
G1 X98.816 Y82.018 E3.38004
G1 X100.022 Y81.974 E3.41519
G1 X101.510 Y82.038 E3.45852
G1 X103.212 Y82.263 E3.50850
G1 X104.665 Y82.588 E3.55182
G1 X105.806 Y82.940 E3.58656
G1 X106.385 Y83.144 E3.60444
G1 X107.456 Y83.589 E3.63818
G1 X107.980 Y83.843 E3.65512
G1 X109.071 Y84.422 E3.69108
G1 X110.115 Y85.082 E3.72702
G1 X110.616 Y85.437 E3.74490
G1 X111.512 Y86.130 E3.77785
G1 X112.617 Y87.128 E3.82120
G1 X112.943 Y87.456 E3.83465
G1 X113.785 Y88.385 E3.87114
G1 X114.533 Y89.344 E3.90653
G1 X114.889 Y89.840 E3.92429
G1 X115.667 Y91.084 E3.96699
G1 X116.227 Y92.153 E4.00211
G1 X116.482 Y92.711 E4.01999
G1 X116.920 Y93.784 E4.05371
G1 X117.324 Y95.031 E4.09187
G1 X117.484 Y95.624 E4.10974
G1 X117.685 Y96.530 E4.13675
G1 X117.795 Y97.135 E4.15463
G1 X117.951 Y98.357 E4.19048
G1 X118.025 Y99.831 E4.23345
G1 X118.016 Y100.407 E4.25019
G1 X117.951 Y101.643 E4.28623
G1 X117.753 Y103.122 E4.32966
G1 X117.484 Y104.376 E4.36696
G1 X117.375 Y104.796 E4.37959
G1 X117.045 Y105.854 E4.41185
G1 X116.837 Y106.432 E4.42973
G1 X116.441 Y107.385 E4.45977
G1 X116.227 Y107.847 E4.47460
G1 X115.667 Y108.916 E4.50972
G1 X114.998 Y109.989 E4.54650
G1 X114.696 Y110.439 E4.56226
G1 X113.968 Y111.392 E4.59717
G1 X113.637 Y111.784 E4.61213
G1 X112.943 Y112.544 E4.64206
G1 X112.507 Y112.976 E4.65994
G1 X111.684 Y113.725 E4.69232
G1 X111.352 Y113.998 E4.70482
G1 X110.327 Y114.775 E4.74226
G1 X109.071 Y115.578 E4.78564
G1 X107.980 Y116.157 E4.82159
G1 X107.456 Y116.411 E4.83854
G1 X106.385 Y116.856 E4.87228
G1 X105.806 Y117.060 E4.89015
G1 X104.665 Y117.412 E4.92489
G1 X103.421 Y117.696 E4.96202
G1 X102.816 Y117.801 E4.97990
G1 X101.734 Y117.941 E5.01166
G1 X101.284 Y117.978 E5.02481
G1 X100.022 Y118.026 E5.06153
G1 X98.532 Y117.966 E5.10495
G1 X97.283 Y117.814 E5.14156
G1 X96.742 Y117.729 E5.15749
G1 X95.292 Y117.400 E5.20077
G1 X94.099 Y117.030 E5.23713
G1 X93.522 Y116.818 E5.25501
G1 X92.666 Y116.463 E5.28199
G1 X92.109 Y116.204 E5.29987
G1 X90.968 Y115.600 E5.33743
G1 X89.969 Y114.972 E5.37177
G1 X89.463 Y114.624 E5.38965
G1 X88.529 Y113.905 E5.42396
G1 X87.420 Y112.909 E5.46735
G1 X86.990 Y112.470 E5.48522
G1 X86.188 Y111.583 E5.52002
G1 X85.278 Y110.400 E5.56345
G1 X84.355 Y108.953 E5.61339
G1 X83.819 Y107.936 E5.64686
G1 X83.556 Y107.381 E5.66474
G1 X83.094 Y106.255 E5.70016
G1 X82.706 Y105.063 E5.73663
G1 X82.553 Y104.530 E5.75276
G1 X82.294 Y103.373 E5.78729
G1 X82.192 Y102.767 E5.80517
G1 X82.046 Y101.601 E5.83936
G1 X81.975 Y100.112 E5.88273
G1 X81.980 Y99.693 E5.89494
G1 X82.046 Y98.399 E5.93264
G1 X82.239 Y96.920 E5.97606
G1 X82.494 Y95.722 E6.01171
G1 X82.641 Y95.144 E6.02906
G1 X82.985 Y94.052 E6.06238
G1 X83.201 Y93.477 E6.08026
G1 X83.669 Y92.370 E6.11523
G1 X84.248 Y91.241 E6.15215
G1 X84.556 Y90.710 E6.17002
G1 X85.055 Y89.927 E6.19704
G1 X85.406 Y89.423 E6.21491
G1 X86.188 Y88.417 E6.25199
G1 X87.154 Y87.356 E6.29376
G1 F1500.000 E3.29376
G92 E0
G1 X87.440 Y87.563 F3000.000
G1 E3.00000 F1500.000
G1 X88.340 Y86.722 E3.03584 F2400.000
G1 X88.749 Y86.367 E3.05159
G1 X89.908 Y85.488 E3.09393
G1 X91.144 Y84.703 E3.13653
G1 X92.267 Y84.109 E3.17352
G1 X92.803 Y83.859 E3.19073
G1 X93.653 Y83.507 E3.21752
G1 X94.208 Y83.302 E3.23473
G1 X95.384 Y82.937 E3.27056
G1 X96.599 Y82.659 E3.30683
G1 X97.128 Y82.560 E3.32249
G1 X98.242 Y82.413 E3.35520
G1 X98.832 Y82.368 E3.37242
G1 X100.021 Y82.324 E3.40705
G1 X101.481 Y82.387 E3.44959
G1 X103.149 Y82.607 E3.49853
G1 X104.575 Y82.926 E3.54106
G1 X105.699 Y83.273 E3.57530
G1 X106.257 Y83.470 E3.59251
G1 X107.314 Y83.909 E3.62584
G1 X107.819 Y84.153 E3.64214
G1 X108.893 Y84.724 E3.67756
G1 X109.923 Y85.374 E3.71299
G1 X110.405 Y85.716 E3.73020
G1 X111.289 Y86.400 E3.76272
G1 X112.374 Y87.380 E3.80528
G1 X112.688 Y87.696 E3.81824
G1 X113.518 Y88.611 E3.85419
G1 X114.254 Y89.556 E3.88906
G1 X114.597 Y90.033 E3.90616
G1 X115.361 Y91.255 E3.94809
G1 X115.913 Y92.309 E3.98273
G1 X116.159 Y92.847 E3.99995
G1 X116.592 Y93.906 E4.03321
G1 X116.990 Y95.133 E4.07077
G1 X117.143 Y95.704 E4.08798
G1 X117.343 Y96.604 E4.11479
G1 X117.449 Y97.186 E4.13200
G1 X117.603 Y98.390 E4.16735
G1 X117.675 Y99.838 E4.20954
G1 X117.666 Y100.392 E4.22565
G1 X117.603 Y101.610 E4.26115
G1 X117.409 Y103.061 E4.30377
G1 X117.143 Y104.296 E4.34051
G1 X117.038 Y104.701 E4.35268
G1 X116.712 Y105.746 E4.38455
G1 X116.512 Y106.302 E4.40176
G1 X116.120 Y107.245 E4.43149
G1 X115.913 Y107.691 E4.44577
G1 X115.361 Y108.745 E4.48041
G1 X114.702 Y109.803 E4.51669
G1 X114.412 Y110.234 E4.53180
G1 X113.694 Y111.174 E4.56624
G1 X113.375 Y111.552 E4.58064
G1 X112.688 Y112.304 E4.61027
G1 X112.268 Y112.720 E4.62748
G1 X111.455 Y113.460 E4.65946
G1 X111.136 Y113.723 E4.67150
G1 X110.126 Y114.488 E4.70837
G1 X108.893 Y115.276 E4.75095
G1 X107.819 Y115.847 E4.78636
G1 X107.314 Y116.091 E4.80267
G1 X106.257 Y116.530 E4.83599
G1 X105.699 Y116.727 E4.85320
