; generated by Slic3r 1.1.5 on 2020-04-29 at 07:21:03

; This profile is for ShareBot NG 0.2 !

; perimeters extrusion width = 0.35mm
; infill extrusion width = 0.52mm
; solid infill extrusion width = 0.52mm
; top infill extrusion width = 0.52mm
; support material extrusion width = 0.14mm

G21 ; set units to millimeters
;M99 Y0.5 (X Y Z BACKSLASH)
G28 ;Home all axis
T0 ; estrusore destro (T1 estrusore sinistro)
;M106 S128 ;accende le ventole dell'estrusore
G1 Z10 F1000
G1 X170 Y200 F3000
M190 S50 ; riscalda piatto (prima era 35)
;M140 S60 ; riscalda piatto senza aspettare (prima era 50)
M109 S220 ; riscalda estrusore destro
G92 E0
G90 ; use absolute coordinates
G92 E0
M82 ; use absolute distances for extrusion
M106 S255
G1 Z0.200 F3000.000
G1 F1500.000 E-3.00000
G92 E0
G1 X84.407 Y84.375 F3000.000
G1 E3.00000 F1500.000
G1 X85.285 Y83.544 E3.03517 F2400.000
G1 X85.705 Y83.183 E3.05131
G1 X86.693 Y82.386 E3.08824
G1 X87.793 Y81.609 E3.12744
G1 X88.273 Y81.299 E3.14406
G1 X89.428 Y80.620 E3.18304
G1 X90.778 Y79.943 E3.22700
G1 X91.242 Y79.741 E3.24174
G1 X92.449 Y79.256 E3.27958
G1 X93.699 Y78.845 E3.31787
G1 X94.248 Y78.690 E3.33450
G1 X95.581 Y78.371 E3.37437
G1 X96.811 Y78.160 E3.41069
G1 X97.377 Y78.082 E3.42731
G1 X98.877 Y77.953 E3.47114
G1 X100.155 Y77.927 E3.50833
G1 X100.726 Y77.939 E3.52495
G1 X102.124 Y78.027 E3.56572
G1 X103.330 Y78.180 E3.60111
G1 X103.894 Y78.272 E3.61773
G1 X105.121 Y78.527 E3.65421
G1 X106.598 Y78.935 E3.69879
G1 X107.140 Y79.115 E3.71541
G1 X108.293 Y79.542 E3.75120
G1 X109.560 Y80.105 E3.79155
G1 X110.072 Y80.358 E3.80817
G1 X111.208 Y80.981 E3.84588
G1 X112.471 Y81.785 E3.88946
G1 X112.929 Y82.112 E3.90583
G1 X113.933 Y82.877 E3.94256
G1 X114.955 Y83.766 E3.98199
G1 X115.371 Y84.158 E3.99861
G1 X116.298 Y85.109 E4.03727
G1 X117.157 Y86.115 E4.07578
G1 X117.466 Y86.499 E4.09011
G1 X118.346 Y87.721 E4.13393
G1 X119.046 Y88.843 E4.17243
G1 X119.328 Y89.340 E4.18906
G1 X119.951 Y90.551 E4.22868
G1 X120.452 Y91.701 E4.26520
G1 X120.663 Y92.232 E4.28181
G1 X121.143 Y93.649 E4.32537
G1 X121.475 Y94.894 E4.36287
G1 X121.599 Y95.452 E4.37949
G1 X121.845 Y96.823 E4.42004
G1 X121.985 Y98.039 E4.45565
G1 X122.030 Y98.608 E4.47227
G1 X122.075 Y99.848 E4.50838
G1 X122.030 Y101.392 E4.55332
G1 X121.985 Y101.961 E4.56995
G1 X121.846 Y103.177 E4.60555
G1 X121.599 Y104.548 E4.64611
G1 X121.475 Y105.106 E4.66273
G1 X121.143 Y106.351 E4.70023
G1 X120.663 Y107.768 E4.74379
G1 X120.479 Y108.236 E4.75842
G1 X119.951 Y109.449 E4.79692
G1 X119.328 Y110.660 E4.83655
G1 X119.046 Y111.157 E4.85317
G1 X118.346 Y112.279 E4.89168
G1 X117.465 Y113.502 E4.93555
G1 X117.159 Y113.883 E4.94975
G1 X116.299 Y114.889 E4.98827
G1 X115.371 Y115.842 E5.02697
G1 X114.956 Y116.234 E5.04359
G1 X113.933 Y117.123 E5.08303
G1 X112.930 Y117.888 E5.11976
G1 X112.472 Y118.214 E5.13613
G1 X111.208 Y119.019 E5.17972
G1 X110.072 Y119.642 E5.21742
G1 X109.560 Y119.895 E5.23404
G1 X108.293 Y120.458 E5.27441
G1 X107.140 Y120.885 E5.31019
G1 X106.598 Y121.065 E5.32681
G1 X105.118 Y121.474 E5.37148
G1 X103.894 Y121.728 E5.40788
G1 X103.330 Y121.820 E5.42450
G1 X102.124 Y121.973 E5.45988
G1 X100.727 Y122.061 E5.50062
G1 X100.156 Y122.074 E5.51724
G1 X98.877 Y122.047 E5.55446
G1 X97.375 Y121.918 E5.59833
G1 X96.810 Y121.840 E5.61495
G1 X95.582 Y121.629 E5.65121
G1 X94.249 Y121.311 E5.69108
G1 X93.700 Y121.155 E5.70770
G1 X92.449 Y120.744 E5.74602
G1 X91.054 Y120.181 E5.78980
G1 X89.425 Y119.378 E5.84264
G1 X88.273 Y118.701 E5.88154
G1 X87.793 Y118.391 E5.89816
G1 X86.695 Y117.615 E5.93730
G1 X85.663 Y116.782 E5.97589
G1 X85.285 Y116.456 E5.99042
G1 X84.203 Y115.421 E6.03401
G1 X83.321 Y114.459 E6.07198
G1 X82.953 Y114.022 E6.08860
G1 X82.109 Y112.931 E6.12874
G1 X81.368 Y111.835 E6.16724
G1 X81.111 Y111.424 E6.18135
G1 X80.368 Y110.096 E6.22564
G1 X79.824 Y108.956 E6.26242
G1 X79.601 Y108.430 E6.27904
G1 X79.168 Y107.302 E6.31420
G1 X78.747 Y105.958 E6.35520
G1 X78.598 Y105.406 E6.37181
G1 X78.321 Y104.167 E6.40877
G1 X78.087 Y102.670 E6.45286
G1 X78.035 Y102.185 E6.46705
G1 X77.942 Y100.867 E6.50552
G1 X77.933 Y99.488 E6.54565
G1 X77.953 Y98.917 E6.56227
G1 X78.054 Y97.613 E6.60034
G1 X78.267 Y96.128 E6.64401
G1 X78.362 Y95.643 E6.65838
G1 X78.659 Y94.352 E6.69694
G1 X79.045 Y93.063 E6.73608
G1 X79.231 Y92.524 E6.75271
G1 X79.721 Y91.276 E6.79172
G1 X80.508 Y89.637 E6.84463
G1 X81.257 Y88.336 E6.88830
G1 X81.985 Y87.244 E6.92651
G1 X82.322 Y86.783 E6.94313
G1 X83.175 Y85.708 E6.98307
G1 X84.370 Y84.412 E7.03437
G1 F1500.000 E4.03437
G92 E0
G1 X84.651 Y84.625 F3000.000
G1 E3.00000 F1500.000
G1 X85.521 Y83.803 E3.03485 F2400.000
G1 X85.927 Y83.453 E3.05043
G1 X86.904 Y82.665 E3.08697
G1 X87.991 Y81.898 E3.12569
G1 X88.455 Y81.599 E3.14175
G1 X89.596 Y80.928 E3.18027
G1 X90.927 Y80.260 E3.22360
G1 X91.375 Y80.064 E3.23784
G1 X92.568 Y79.585 E3.27524
G1 X93.803 Y79.179 E3.31310
G1 X94.334 Y79.029 E3.32916
G1 X95.651 Y78.714 E3.36854
G1 X96.867 Y78.505 E3.40448
G1 X97.414 Y78.430 E3.42053
G1 X98.893 Y78.302 E3.46374
G1 X100.157 Y78.277 E3.50053
G1 X100.708 Y78.289 E3.51658
G1 X102.089 Y78.375 E3.55683
G1 X103.283 Y78.527 E3.59187
G1 X103.828 Y78.616 E3.60793
G1 X105.043 Y78.868 E3.64404
G1 X106.497 Y79.270 E3.68796
G1 X107.021 Y79.444 E3.70401
G1 X108.162 Y79.866 E3.73944
G1 X109.413 Y80.423 E3.77928
G1 X109.908 Y80.667 E3.79534
G1 X111.032 Y81.283 E3.83263
G1 X112.277 Y82.076 E3.87559
G1 X113.712 Y83.148 E3.92774
G1 X114.722 Y84.027 E3.96669
G1 X115.123 Y84.405 E3.98274
G1 X116.040 Y85.346 E4.02096
G1 X116.889 Y86.340 E4.05900
G1 X117.187 Y86.711 E4.07285
G1 X118.054 Y87.915 E4.11604
G1 X118.747 Y89.024 E4.15411
G1 X119.019 Y89.504 E4.17016
G1 X119.634 Y90.700 E4.20930
G1 X120.130 Y91.838 E4.24543
G1 X120.334 Y92.351 E4.26149
G1 X120.807 Y93.748 E4.30442
G1 X121.136 Y94.980 E4.34151
G1 X121.255 Y95.518 E4.35757
G1 X121.499 Y96.872 E4.39760
G1 X121.637 Y98.076 E4.43286
G1 X121.681 Y98.626 E4.44892
G1 X121.725 Y99.853 E4.48467
G1 X121.681 Y101.374 E4.52894
G1 X121.637 Y101.924 E4.54500
G1 X121.499 Y103.127 E4.58025
G1 X121.255 Y104.481 E4.62029
G1 X121.136 Y105.020 E4.63635
G1 X120.807 Y106.251 E4.67344
G1 X120.334 Y107.649 E4.71638
G1 X120.156 Y108.101 E4.73051
G1 X119.635 Y109.300 E4.76856
G1 X119.019 Y110.496 E4.80770
G1 X118.747 Y110.976 E4.82376
G1 X118.054 Y112.085 E4.86182
G1 X117.186 Y113.291 E4.90506
G1 X116.891 Y113.658 E4.91878
G1 X116.041 Y114.653 E4.95685
G1 X115.124 Y115.594 E4.99509
G1 X114.723 Y115.973 E5.01115
G1 X113.712 Y116.851 E5.05012
G1 X112.277 Y117.923 E5.10225
G1 X111.032 Y118.717 E5.14523
G1 X109.908 Y119.333 E5.18251
G1 X109.414 Y119.577 E5.19857
G1 X108.162 Y120.134 E5.23843
G1 X107.021 Y120.556 E5.27385
G1 X106.498 Y120.730 E5.28990
G1 X105.040 Y121.133 E5.33391
G1 X103.828 Y121.384 E5.36994
G1 X103.283 Y121.473 E5.38600
G1 X102.089 Y121.625 E5.42103
G1 X100.709 Y121.711 E5.46125
G1 X100.158 Y121.723 E5.47731
G1 X98.893 Y121.698 E5.51413
G1 X97.413 Y121.570 E5.55736
G1 X96.866 Y121.495 E5.57342
G1 X95.651 Y121.286 E5.60930
G1 X94.335 Y120.971 E5.64867
G1 X93.804 Y120.821 E5.66473
G1 X92.568 Y120.415 E5.70262
G1 X91.193 Y119.860 E5.74577
G1 X89.593 Y119.071 E5.79767
G1 X88.455 Y118.401 E5.83611
G1 X87.991 Y118.102 E5.85216
G1 X86.906 Y117.336 E5.89084
G1 X85.886 Y116.513 E5.92897
G1 X85.521 Y116.197 E5.94301
G1 X84.454 Y115.177 E5.98598
G1 X83.582 Y114.226 E6.02352
G1 X83.227 Y113.804 E6.03958
G1 X82.393 Y112.727 E6.07922
G1 X81.661 Y111.644 E6.11726
G1 X81.413 Y111.247 E6.13090
G1 X80.681 Y109.938 E6.17453
G1 X80.142 Y108.809 E6.21093
G1 X79.926 Y108.302 E6.22699
G1 X79.497 Y107.185 E6.26180
G1 X79.082 Y105.858 E6.30227
G1 X78.939 Y105.325 E6.31832
G1 X78.664 Y104.099 E6.35490
G1 X78.434 Y102.624 E6.39835
G1 X78.384 Y102.155 E6.41206
G1 X78.291 Y100.852 E6.45007
G1 X78.283 Y99.491 E6.48970
G1 X78.302 Y98.939 E6.50576
G1 X78.402 Y97.650 E6.54340
G1 X78.612 Y96.186 E6.58644
G1 X78.704 Y95.717 E6.60033
G1 X78.997 Y94.442 E6.63843
G1 X79.379 Y93.169 E6.67711
G1 X79.559 Y92.647 E6.69316
G1 X80.043 Y91.414 E6.73171
G1 X80.816 Y89.804 E6.78368
G1 X81.554 Y88.522 E6.82673
G1 X82.274 Y87.442 E6.86451
G1 X82.599 Y86.996 E6.88057
G1 X83.442 Y85.935 E6.92001
G1 X84.614 Y84.663 E6.97036
G1 F1500.000 E3.97036
G92 E0
G1 X84.895 Y84.876 F3000.000
G1 E3.00000 F1500.000
G1 X85.757 Y84.061 E3.03452 F2400.000
G1 X86.149 Y83.724 E3.04956
G1 X87.115 Y82.944 E3.08569
G1 X88.189 Y82.186 E3.12395
G1 X88.636 Y81.898 E3.13944
G1 X89.764 Y81.235 E3.17750
G1 X91.075 Y80.577 E3.22020
G1 X91.508 Y80.388 E3.23394
G1 X92.686 Y79.914 E3.27091
G1 X93.908 Y79.513 E3.30833
G1 X94.420 Y79.368 E3.32382
G1 X95.720 Y79.057 E3.36272
G1 X97.451 Y78.778 E3.41375
G1 X98.909 Y78.652 E3.45633
G1 X100.159 Y78.627 E3.49272
G1 X100.691 Y78.639 E3.50821
G1 X102.054 Y78.724 E3.54794
G1 X103.236 Y78.874 E3.58263
G1 X103.762 Y78.959 E3.59812
G1 X104.964 Y79.209 E3.63386
G1 X106.397 Y79.605 E3.67712
G1 X108.032 Y80.191 E3.72767
G1 X109.267 Y80.741 E3.76701
G1 X109.744 Y80.976 E3.78250
G1 X110.855 Y81.586 E3.81938
G1 X112.082 Y82.367 E3.86171
G1 X113.491 Y83.420 E3.91291
G1 X114.489 Y84.288 E3.95138
G1 X114.876 Y84.653 E3.96687
G1 X115.782 Y85.583 E4.00464
G1 X116.621 Y86.564 E4.04223
G1 X116.908 Y86.922 E4.05559
G1 X117.763 Y88.109 E4.09815
G1 X118.448 Y89.206 E4.13577
G1 X118.710 Y89.669 E4.15127
G1 X119.318 Y90.850 E4.18993
G1 X119.808 Y91.976 E4.22566
G1 X120.005 Y92.470 E4.24115
G1 X120.471 Y93.847 E4.28347
G1 X120.797 Y95.065 E4.32015
G1 X120.912 Y95.585 E4.33565
G1 X121.152 Y96.921 E4.37517
G1 X121.289 Y98.113 E4.41006
G1 X121.331 Y98.643 E4.42555
G1 X121.375 Y99.859 E4.46095
G1 X121.331 Y101.356 E4.50455
G1 X121.289 Y101.887 E4.52005
G1 X121.152 Y103.078 E4.55494
G1 X120.912 Y104.415 E4.59446
G1 X120.797 Y104.935 E4.60995
G1 X120.471 Y106.152 E4.64664
G1 X120.005 Y107.530 E4.68896
G1 X119.833 Y107.966 E4.70260
G1 X119.318 Y109.150 E4.74019
G1 X118.710 Y110.331 E4.77884
G1 X118.447 Y110.794 E4.79434
G1 X117.763 Y111.891 E4.83196
G1 X116.907 Y113.079 E4.87457
G1 X116.622 Y113.434 E4.88781
G1 X115.783 Y114.416 E4.92542
G1 X114.877 Y115.346 E4.96321
G1 X114.490 Y115.712 E4.97870
G1 X113.492 Y116.580 E5.01720
G1 X112.083 Y117.632 E5.06838
G1 X110.855 Y118.414 E5.11073
G1 X109.744 Y119.023 E5.14760
G1 X109.267 Y119.259 E5.16309
G1 X108.032 Y119.809 E5.20245
G1 X106.397 Y120.395 E5.25298
G1 X104.961 Y120.792 E5.29634
G1 X103.761 Y121.041 E5.33200
G1 X103.236 Y121.126 E5.34749
G1 X102.054 Y121.276 E5.38217
G1 X100.692 Y121.361 E5.42187
G1 X100.160 Y121.373 E5.43736
G1 X98.909 Y121.348 E5.47379
G1 X97.450 Y121.222 E5.51639
G1 X95.721 Y120.943 E5.56738
G1 X94.421 Y120.632 E5.60626
G1 X93.909 Y120.487 E5.62175
G1 X92.686 Y120.086 E5.65920
G1 X91.332 Y119.539 E5.70173
G1 X89.761 Y118.764 E5.75268
G1 X88.636 Y118.102 E5.79067
G1 X88.189 Y117.814 E5.80616
G1 X87.116 Y117.057 E5.84437
G1 X86.110 Y116.243 E5.88203
G1 X85.757 Y115.939 E5.89558
G1 X84.706 Y114.933 E5.93793
G1 X83.844 Y113.993 E5.97505
G1 X83.501 Y113.586 E5.99054
G1 X82.677 Y112.523 E6.02969
G1 X81.954 Y111.453 E6.06727
G1 X81.715 Y111.069 E6.08043
G1 X80.993 Y109.780 E6.12342
G1 X80.460 Y108.663 E6.15944
G1 X80.252 Y108.173 E6.17493
G1 X79.827 Y107.068 E6.20940
G1 X79.418 Y105.758 E6.24934
G1 X79.279 Y105.244 E6.26483
G1 X79.008 Y104.030 E6.30101
G1 X78.781 Y102.577 E6.34383
G1 X78.733 Y102.125 E6.35705
G1 X78.641 Y100.838 E6.39461
G1 X78.633 Y99.493 E6.43374
G1 X78.652 Y98.961 E6.44923
G1 X78.750 Y97.686 E6.48644
G1 X78.958 Y96.244 E6.52886
G1 X79.046 Y95.792 E6.54227
G1 X79.336 Y94.531 E6.57990
G1 X79.713 Y93.274 E6.61812
G1 X79.887 Y92.770 E6.63361
G1 X80.365 Y91.552 E6.67170
G1 X81.123 Y89.971 E6.72272
G1 X81.850 Y88.708 E6.76514
G1 X82.562 Y87.640 E6.80249
G1 X82.876 Y87.210 E6.81798
G1 X83.708 Y86.162 E6.85693
G1 X84.858 Y84.913 E6.90634
G1 F1500.000 E3.90634
G92 E0
G1 X85.140 Y85.127 F3000.000
G1 E3.00000 F1500.000
G1 X85.994 Y84.320 E3.03420 F2400.000
G1 X86.371 Y83.995 E3.04869
G1 X87.326 Y83.224 E3.08441
G1 X88.387 Y82.475 E3.12220
G1 X88.818 Y82.197 E3.13713
G1 X89.932 Y81.542 E3.17473
G1 X91.224 Y80.894 E3.21680
G1 X91.641 Y80.712 E3.23004
G1 X92.805 Y80.244 E3.26657
G1 X94.013 Y79.847 E3.30356
G1 X94.506 Y79.707 E3.31849
G1 X95.790 Y79.400 E3.35689
G1 X97.489 Y79.126 E3.40698
G1 X98.925 Y79.002 E3.44892
G1 X100.161 Y78.977 E3.48492
G1 X100.674 Y78.988 E3.49985
G1 X102.019 Y79.072 E3.53905
G1 X103.695 Y79.303 E3.58831
G1 X104.885 Y79.550 E3.62368
G1 X106.296 Y79.941 E3.66629
G1 X107.901 Y80.516 E3.71591
G1 X109.120 Y81.058 E3.75474
G1 X109.580 Y81.286 E3.76967
G1 X110.679 Y81.888 E3.80613
G1 X111.888 Y82.658 E3.84784
G1 X113.271 Y83.692 E3.89809
G1 X114.256 Y84.549 E3.93609
G1 X114.629 Y84.901 E3.95101
G1 X115.524 Y85.819 E3.98833
G1 X116.352 Y86.789 E4.02546
G1 X116.629 Y87.134 E4.03834
G1 X117.472 Y88.303 E4.08027
G1 X118.148 Y89.387 E4.11745
G1 X118.401 Y89.833 E4.13238
G1 X119.002 Y90.999 E4.17055
G1 X119.486 Y92.113 E4.20590
G1 X119.676 Y92.590 E4.22082
G1 X120.136 Y93.947 E4.26252
G1 X120.457 Y95.151 E4.29880
G1 X120.568 Y95.652 E4.31373
G1 X120.806 Y96.971 E4.35273
G1 X120.941 Y98.150 E4.38727
G1 X120.982 Y98.661 E4.40220
G1 X121.025 Y99.864 E4.43723
G1 X120.982 Y101.339 E4.48017
G1 X120.941 Y101.850 E4.49510
G1 X120.806 Y103.029 E4.52963
G1 X120.568 Y104.348 E4.56864
G1 X120.457 Y104.849 E4.58357
G1 X120.136 Y106.053 E4.61985
G1 X119.676 Y107.410 E4.66155
G1 X119.510 Y107.831 E4.67469
G1 X119.002 Y109.001 E4.71182
G1 X118.401 Y110.167 E4.75000
G1 X118.148 Y110.613 E4.76493
G1 X117.472 Y111.697 E4.80211
G1 X116.628 Y112.867 E4.84409
G1 X116.354 Y113.209 E4.85685
G1 X115.525 Y114.180 E4.89399
G1 X114.629 Y115.099 E4.93134
G1 X114.256 Y115.451 E4.94627
G1 X113.271 Y116.308 E4.98429
G1 X111.888 Y117.341 E5.03451
G1 X110.679 Y118.112 E5.07625
G1 X109.580 Y118.714 E5.11270
G1 X109.121 Y118.941 E5.12763
G1 X107.901 Y119.484 E5.16647
G1 X106.297 Y120.059 E5.21608
G1 X104.883 Y120.451 E5.25878
G1 X103.695 Y120.697 E5.29407
G1 X102.019 Y120.928 E5.34332
G1 X100.675 Y121.012 E5.38250
G1 X100.162 Y121.023 E5.39742
G1 X98.925 Y120.998 E5.43345
G1 X97.488 Y120.874 E5.47543
G1 X95.790 Y120.600 E5.52547
G1 X94.507 Y120.293 E5.56386
G1 X94.014 Y120.153 E5.57879
G1 X92.805 Y119.756 E5.61580
G1 X91.470 Y119.217 E5.65770
G1 X89.929 Y118.457 E5.70771
G1 X88.818 Y117.803 E5.74524
G1 X88.387 Y117.525 E5.76016
G1 X87.327 Y116.777 E5.79791
G1 X86.333 Y115.974 E5.83511
G1 X85.994 Y115.680 E5.84817
G1 X84.957 Y114.690 E5.88990
G1 X84.105 Y113.760 E5.92659
G1 X83.775 Y113.368 E5.94152
G1 X82.961 Y112.318 E5.98017
G1 X82.247 Y111.261 E6.01729
G1 X82.017 Y110.892 E6.02997
G1 X81.305 Y109.622 E6.07232
G1 X80.778 Y108.517 E6.10795
G1 X80.578 Y108.045 E6.12288
G1 X80.157 Y106.950 E6.15701
G1 X79.753 Y105.658 E6.19642
G1 X79.620 Y105.163 E6.21134
G1 X79.351 Y103.962 E6.24714
G1 X79.128 Y102.530 E6.28931
G1 X79.075 Y102.020 E6.30424
G1 X78.991 Y100.823 E6.33916
G1 X78.983 Y99.496 E6.37779
G1 X79.001 Y98.983 E6.39272
G1 X79.098 Y97.723 E6.42950
G1 X79.303 Y96.302 E6.47130
G1 X79.388 Y95.866 E6.48422
G1 X79.674 Y94.621 E6.52139
G1 X80.047 Y93.379 E6.55914
G1 X80.214 Y92.894 E6.57407
G1 X80.686 Y91.690 E6.61170
G1 X81.431 Y90.139 E6.66177
G1 X82.147 Y88.894 E6.70357
G1 X82.851 Y87.839 E6.74049
G1 X83.153 Y87.424 E6.75541
G1 X83.975 Y86.389 E6.79387
G1 X85.103 Y85.164 E6.84234
G1 F1500.000 E3.84234
G92 E0
G1 X85.384 Y85.378 F3000.000
G1 E3.00000 F1500.000
G1 X86.230 Y84.578 E3.03387 F2400.000
G1 X86.593 Y84.266 E3.04782
G1 X87.537 Y83.503 E3.08313
G1 X88.585 Y82.764 E3.12046
G1 X89.000 Y82.496 E3.13482
G1 X90.100 Y81.849 E3.17197
G1 X91.372 Y81.211 E3.21340
G1 X91.774 Y81.036 E3.22614
G1 X92.924 Y80.573 E3.26223
G1 X94.117 Y80.181 E3.29879
G1 X94.592 Y80.047 E3.31315
G1 X95.859 Y79.743 E3.35106
G1 X97.526 Y79.474 E3.40020
G1 X98.941 Y79.351 E3.44152
G1 X100.164 Y79.327 E3.47712
G1 X100.657 Y79.338 E3.49148
G1 X101.984 Y79.420 E3.53017
G1 X103.629 Y79.647 E3.57851
G1 X104.807 Y79.891 E3.61351
G1 X106.196 Y80.276 E3.65546
G1 X107.771 Y80.841 E3.70415
G1 X108.974 Y81.376 E3.74247
G1 X109.416 Y81.595 E3.75684
G1 X110.502 Y82.190 E3.79289
G1 X111.693 Y82.949 E3.83398
G1 X113.050 Y83.963 E3.88327
